X:1
T:Title
%%score { ( 1 4 ) | ( 2 3 ) }
L:1/8
Q:1/4=106
M:4/4
K:F
V:1 treble nm="Grand Piano"
V:4 treble 
V:2 bass 
V:3 bass 
V:1
 A2 B>B A2 z F | [B,EG]>[A,F] [B,EG][CEA] F4 | c2 d>d c2 z A |[M:7/8] G>G=B d [CEc]3 |[M:1/8] z | %5
w: Asa~Hull * * * *|||||
[M:4/4] z2 z [EB] [EB]3 C | z2 z A A2 A2 | [EG] [EG]3 [Ec]2 [EG]2 | A6 z2 | A2 F>D C3 A | %10
w: |||||
 [EG]>[FA] [GB][Ac] A4 | d2 c>c B2 A2 |[M:7/8] G>G=B d [CEc]3 |[M:1/8] z | %14
w: ||||
[M:4/4] z2 z [EB] [EB]3 C | z2 z A A2 A2 | [EG] [EG]3 [Ec]2 [EG]2 | A6 z2 | A2 F>D C3 A | %19
w: |||||
 [EG]>[FA] [GB][Ac] A4 | d2 c>c B2 A2 |[M:7/8] G>G=B d [CEc]3 |[M:1/8] z |[M:4/4] z2 z [EB] B3 C | %24
w: |||||
 z2 z A A2 A2 | [EG] [EG]3 [Ec]2 [EG]2 | A6 d2 | c6 [Be]2 | [Af]6 [DGB]2 | [FA] [FA]3 [EG]2 [Ec]2 | %30
w: ||||||
 F6 z2 |] %31
w: |
V:2
 [F,CF]2 [F,DF]>[F,DF] [F,CF]2 z [F,A,] | C,>C, C,C, [F,A,]4 | %2
 [F,A,F]2 [F,B,F]>[F,B,F] [F,A,F]2 z [F,CF] |[M:7/8] [G,=B,F]>[G,B,F][G,DF] [G,B,F][K:bass] C,3 | %4
[M:1/8] C |[M:4/4] C8 | z2 z [F,F] [F,F]2 [F,CF]2 | [C,C] [C,C]3 [C,G,]2 [C,C]2 | [F,CF]6 z2 | %9
 [F,CF]2 [F,A,C]>[F,B,] [F,A,]3 [F,CF] | [C,C]>[C,C] [C,C][C,C][K:treble] [F,CF]4 | %11
 [B,F]2 [A,CF]>[A,CF] [G,CE]2 [F,CF]2 |[M:7/8] [G,B,F]>[G,B,F][G,DF] [G,B,F][K:bass] C,3 | %13
[M:1/8] C |[M:4/4] C8 | z2 z [F,F] [F,F]2 [F,CF]2 | [C,C] [C,C]3 [C,G,]2 [C,C]2 | [F,CF]6 z2 | %18
 [F,CF]2 [F,A,C]>[F,B,] [F,A,]3 [F,CF] | [C,C]>[C,C] [C,C][C,C][K:treble] [F,CF]4 | %20
 [B,F]2 [A,CF]>[A,CF] [G,CE]2 [F,CF]2 |[M:7/8] [G,B,F]>[G,B,F][G,DF] [G,B,F][K:bass] C,3 | %22
[M:1/8] C |[M:4/4] C8 | z2 z [F,F] [F,F]2 [F,CF]2 | [C,C] [C,C]3 [C,G,]2 [C,C]2 | [F,CF]6 [B,F]2 | %27
 [A,CF]6[K:bass] [G,C]2 | [F,C]6 B,,2 | [C,C] [C,C]3 [C,C]2 [C,B,]2 | [F,A,]6 z2 |] %31
V:3
 x8 | x8 | x8 |[M:7/8] x4[K:bass] x3 |[M:1/8] x |[M:4/4] z2 z C, C,4 | x8 | x8 | x8 | x8 | %10
 x4[K:treble] x4 | x8 |[M:7/8] x4[K:bass] x3 |[M:1/8] x |[M:4/4] z2 z C, C,4 | x8 | x8 | x8 | x8 | %19
 x4[K:treble] x4 | x8 |[M:7/8] x4[K:bass] x3 |[M:1/8] x |[M:4/4] z2 z C, E4 | x8 | x8 | x8 | %27
 x6[K:bass] x2 | x8 | x8 | x8 |] %31
V:4
 x8 | x8 | x8 |[M:7/8] x7 |[M:1/8] x |[M:4/4] x8 | C6 z2 | x8 | x8 | x8 | x8 | x8 |[M:7/8] x7 | %13
[M:1/8] x |[M:4/4] x8 | C6 z2 | x8 | x8 | x8 | x8 | x8 |[M:7/8] x7 |[M:1/8] x |[M:4/4] x8 | C6 z2 | %25
 x8 | x8 | x8 | x8 | x8 | x8 |] %31

